16x16/apps/pragha.svg

<svg xmlns="http://www.w3.org/2000/svg" width="16" height="16" version="1">
 <rect style="fill:#3c6eb4" width="16" height="16" x="0" y="0" rx=".8" ry=".8"/>
 <path style="fill:#f4f4f7" d="M 10.136719 3 C 10.083369 2.99667 9.9978359 3.0326271 9.8417969 3.1035156 C 9.6565762 3.1876716 9.2357593 3.2558594 8.90625 3.2558594 C 7.7401333 3.2806594 6.8087776 3.6963858 6.0527344 4.4804688 C 5.0265316 5.5519453 4.7018234 6.9007182 5.1699219 8.1523438 C 5.2779762 8.4412563 5.3444665 8.7344196 5.3164062 8.8046875 C 5.2883563 8.8749542 5.0910494 9.0702511 4.8789062 9.2382812 C 4.4179714 9.6033193 4.0992812 10.19154 4.0195312 10.824219 C 3.9716273 11.204253 4.0036316 11.385786 4.2070312 11.837891 C 4.6438556 12.808754 5.6355292 13.224851 6.6914062 12.880859 C 7.3027854 12.681686 7.9145612 11.973714 8.4042969 10.900391 C 8.8272675 9.9733345 8.8448751 9.9501611 9.2988281 9.7832031 C 10.064144 9.5017162 10.546055 9.1911023 11.025391 8.6699219 C 11.875184 7.7459033 12.191281 6.5501088 11.886719 5.40625 C 11.749864 4.8922995 11.63343 4.7148396 11.013672 4.0605469 C 10.621104 3.6460943 10.27369 3.2268663 10.240234 3.1289062 C 10.212029 3.0463729 10.190067 3.0033689 10.136719 3 z M 8.2226562 4 C 8.6119557 4.0016 8.9139475 4.1198942 8.9960938 4.3535156 C 9.0230246 4.4301236 8.9089838 4.7899395 8.7421875 5.1542969 C 8.3132423 6.0913238 8.1771695 6.6067784 7.9179688 8.2597656 C 7.5965037 10.309809 7.2447418 11.196229 6.5410156 11.728516 C 6.09738 12.064055 5.5527222 12.090806 5.2617188 11.794922 C 5.009956 11.538933 4.9375765 11.218974 5.0546875 10.882812 C 5.1474535 10.616526 5.5367454 10.574165 6.2128906 10.474609 C 6.6833008 10.405369 7.015625 10.078771 7.015625 9.6523438 C 7.015625 9.3840094 6.9063889 9.2301343 6.5410156 8.84375 C 5.9757305 8.2459475 5.4283842 7.6716273 5.4257812 6.9472656 C 5.4216663 5.8143018 5.9763383 4.8520645 6.9238281 4.3457031 C 7.3570165 4.1142019 7.833357 3.9984046 8.2226562 4 z M 9.7832031 5.0019531 C 9.9192521 4.9867142 10.091534 5.1061948 10.335938 5.3554688 C 11.301583 6.3403097 11.203311 7.8312164 10.115234 8.6875 C 9.6514177 9.0525011 9.5422958 9.0735938 9.2207031 8.8769531 C 9.0346878 8.763213 8.9984681 8.6601292 9 8.2441406 C 9.002133 7.606845 9.2542975 6.0461096 9.4511719 5.453125 C 9.5465767 5.1657837 9.6471525 5.017204 9.7832031 5.0019531 z"/>
</svg>

<svg xmlns="http://www.w3.org/2000/svg" width="16" height="16" version="1"><rect style="fill:#3c6eb4" width="16" height="16" rx=".8" ry=".8"/><path style="fill:#f4f4f7" d="M10.137 3c-.054-.003-.14.033-.295.104-.185.084-.606.152-.936.152-1.166.025-2.097.44-2.853 1.224C5.027 5.552 4.702 6.9 5.17 8.152c.108.29.174.582.146.653-.028.07-.225.265-.437.433-.461.365-.78.954-.86 1.586-.047.38-.015.562.188 1.014.437.97 1.429 1.387 2.484 1.043.612-.2 1.224-.907 1.713-1.98.423-.928.44-.95.895-1.118.765-.281 1.247-.592 1.726-1.113.85-.924 1.166-2.12.862-3.264-.137-.514-.254-.691-.873-1.345-.393-.415-.74-.834-.774-.932-.028-.083-.05-.126-.103-.129zM8.223 4c.389.002.69.12.773.354.027.076-.087.436-.254.8-.429.937-.565 1.453-.824 3.106-.321 2.05-.673 2.936-1.377 3.469-.444.335-.988.362-1.28.066a.843.843 0 0 1-.206-.912c.092-.266.482-.309 1.158-.408.47-.07.803-.396.803-.823 0-.268-.11-.422-.475-.808-.565-.598-1.113-1.172-1.115-1.897-.004-1.133.55-2.095 1.498-2.601.433-.232.91-.348 1.299-.346zm1.56 1.002c.136-.015.309.104.553.353.966.985.867 2.476-.22 3.332-.465.366-.574.387-.895.19-.186-.114-.223-.217-.221-.633.002-.637.254-2.198.451-2.79.096-.288.196-.437.332-.452z"/></svg>
